X:326
T:You Needna Run
D:Wick S.C.D., A Call From the North (1973)
O:Scotland
Z:Nigel Gatherer
L:1/8
M:2/4
K:A
c/B/|AA a>f|ec c>c|dB B>e|cA A/d/c/B/|
AA a>f|ec AB/c/|df ec|B2 A:|
c/B/|Aa a>g|fe e>f|ec BA|ce ec/B/|
Aa a>g|fe e/f/e/c/|df ec|B2 A:|]
<end>
<start>
